X:5404
T:Rabbit, Where's Your Mammy?
O:england
M:C|
K:D
((3vdcB|A2)F2A3A|B2d4((3dcB|A2)F2A3F|F2E4((3dcB|
A2)F2A3A|B2d4((3dcB|A2)F2A3F|E2D4:|
|:(v=f2|^f2)a2f3e|d2B4(=f2|^f2)b2a3f|f2e4(=f2|
^f2)a2f3e|d2B4((3dcB|A2)F2A3F|E2D4:||


